Flat-Remix-Dark/apps/scalable/glade.svg

<svg xmlns="http://www.w3.org/2000/svg" xmlns:xlink="http://www.w3.org/1999/xlink" width="384pt" height="384pt" version="1.1" viewBox="0 0 384 384"> <defs> <filter id="alpha" width="100%" height="100%" x="0%" y="0%" filterUnits="objectBoundingBox"> <feColorMatrix in="SourceGraphic" type="matrix" values="0 0 0 0 1 0 0 0 0 1 0 0 0 0 1 0 0 0 1 0"/> </filter> <mask id="mask0"> <g filter="url(#alpha)"> <rect width="384" height="384" x="0" y="0" style="fill:rgb(0%,0%,0%);fill-opacity:0.4"/> </g> </mask> <clipPath id="clip1"> <rect width="384" height="384" x="0" y="0"/> </clipPath> <g id="surface5" clip-path="url(#clip1)"> <path style="fill:rgb(0%,0%,0%)" d="M 349.21875 144.101562 C 238.480469 208.222656 128.617188 273.0625 33.847656 328.0625 C 144.898438 328.0625 253.976562 328.0625 349.21875 328.0625 C 349.21875 263.707031 349.21875 199.554688 349.21875 144.101562 Z M 304.328125 228.957031 L 304.328125 294.648438 L 191.53125 294.648438 Z M 304.328125 228.957031"/> </g> <mask id="mask1"> <g filter="url(#alpha)"> <rect width="384" height="384" x="0" y="0" style="fill:rgb(0%,0%,0%);fill-opacity:0.14902"/> </g> </mask> <linearGradient id="linear0" x1="399.59" x2="427.136" y1="194.223" y2="194.903" gradientTransform="matrix(0.607963,0,0,0.631311,105.850763,13.174582)" gradientUnits="userSpaceOnUse"> <stop offset="0" style="stop-color:rgb(0%,0%,0%)"/> <stop offset="1" style="stop-color:rgb(0%,0%,0%);stop-opacity:0"/> </linearGradient> <clipPath id="clip2"> <rect width="384" height="384" x="0" y="0"/> </clipPath> <g id="surface8" clip-path="url(#clip2)"> <path style="fill:url(#linear0)" d="M 329.464844 79.679688 L 289.886719 103.859375 L 368.25 184.066406 L 368.054688 121.640625 Z M 329.464844 79.679688"/> </g> </defs> <g> <path style="fill:rgb(29.019%,68.235%,90.196%)" d="M 26.8125 33.550781 C 16.8125 34.058594 15.769531 35.347656 15.769531 45.386719 L 15.769531 338.449219 C 15.769531 348.816406 17.339844 350.308594 27.804688 350.308594 L 355.621094 350.308594 C 365.664062 350.308594 366.96875 349.472656 367.609375 339.6875 L 367.609375 120.703125 L 286.976562 33.550781 Z M 26.8125 33.550781"/> <path style="fill-rule:evenodd;fill:rgb(90.196%,90.196%,90.196%)" d="M 46.535156 33.550781 L 46.535156 48.203125 L 15.75 48.203125 L 15.75 50.585938 L 46.535156 50.585938 L 46.535156 95.742188 L 15.75 95.742188 L 15.75 98.125 L 46.535156 98.125 L 46.535156 143.277344 L 15.75 143.277344 L 15.75 145.664062 L 46.535156 145.664062 L 46.535156 190.816406 L 15.75 190.816406 L 15.75 193.199219 L 46.535156 193.199219 L 46.535156 238.355469 L 15.75 238.355469 L 15.75 240.738281 L 46.535156 240.738281 L 46.535156 285.890625 L 15.75 285.890625 L 15.75 288.273438 L 46.535156 288.273438 L 46.535156 333.429688 L 15.75 333.429688 L 15.75 335.8125 L 46.535156 335.8125 L 46.535156 350.464844 L 48.941406 350.464844 L 48.941406 335.8125 L 94.515625 335.8125 L 94.515625 350.464844 L 96.921875 350.464844 L 96.921875 335.8125 L 142.496094 335.8125 L 142.496094 350.464844 L 144.902344 350.464844 L 144.902344 335.8125 L 190.476562 335.8125 L 190.476562 350.464844 L 192.882812 350.464844 L 192.882812 335.8125 L 238.457031 335.8125 L 238.457031 350.464844 L 240.863281 350.464844 L 240.863281 335.8125 L 286.441406 335.8125 L 286.441406 350.464844 L 288.84375 350.464844 L 288.84375 335.8125 L 334.421875 335.8125 L 334.421875 350.464844 L 336.824219 350.464844 L 336.824219 335.8125 L 367.609375 335.8125 L 367.609375 333.429688 L 336.824219 333.429688 L 336.824219 288.273438 L 367.609375 288.273438 L 367.609375 285.890625 L 336.824219 285.890625 L 336.824219 240.738281 L 367.609375 240.738281 L 367.609375 238.355469 L 336.824219 238.355469 L 336.824219 193.199219 L 367.609375 193.199219 L 367.609375 190.816406 L 336.824219 190.816406 L 336.824219 145.664062 L 367.609375 145.664062 L 367.609375 143.277344 L 336.824219 143.277344 L 336.824219 98.125 L 344.824219 98.125 L 342.417969 95.742188 L 336.824219 95.742188 L 336.824219 90.203125 L 334.421875 87.820312 L 334.421875 95.742188 L 288.84375 95.742188 L 288.84375 50.585938 L 296.839844 50.585938 L 294.4375 48.203125 L 288.84375 48.203125 L 288.84375 35.917969 L 286.441406 33.535156 L 286.441406 48.203125 L 240.863281 48.203125 L 240.863281 33.550781 L 238.457031 33.550781 L 238.457031 48.203125 L 192.882812 48.203125 L 192.882812 33.550781 L 190.476562 33.550781 L 190.476562 48.203125 L 144.902344 48.203125 L 144.902344 33.550781 L 142.496094 33.550781 L 142.496094 48.203125 L 96.921875 48.203125 L 96.921875 33.550781 L 94.515625 33.550781 L 94.515625 48.203125 L 48.941406 48.203125 L 48.941406 33.550781 Z M 48.941406 50.585938 L 94.515625 50.585938 L 94.515625 95.742188 L 48.941406 95.742188 Z M 96.921875 50.585938 L 142.496094 50.585938 L 142.496094 95.742188 L 96.921875 95.742188 Z M 144.902344 50.585938 L 190.476562 50.585938 L 190.476562 95.742188 L 144.902344 95.742188 Z M 192.882812 50.585938 L 238.457031 50.585938 L 238.457031 95.742188 L 192.882812 95.742188 Z M 240.863281 50.585938 L 286.441406 50.585938 L 286.441406 95.742188 L 240.863281 95.742188 Z M 48.941406 98.125 L 94.515625 98.125 L 94.515625 143.277344 L 48.941406 143.277344 Z M 96.921875 98.125 L 142.496094 98.125 L 142.496094 143.277344 L 96.921875 143.277344 Z M 144.902344 98.125 L 190.476562 98.125 L 190.476562 143.277344 L 144.902344 143.277344 Z M 192.882812 98.125 L 238.457031 98.125 L 238.457031 143.277344 L 192.882812 143.277344 Z M 240.863281 98.125 L 286.441406 98.125 L 286.441406 143.277344 L 240.863281 143.277344 Z M 288.84375 98.125 L 334.421875 98.125 L 334.421875 143.277344 L 288.84375 143.277344 Z M 48.941406 145.664062 L 94.515625 145.664062 L 94.515625 190.816406 L 48.941406 190.816406 Z M 96.921875 145.664062 L 142.496094 145.664062 L 142.496094 190.816406 L 96.921875 190.816406 Z M 144.902344 145.664062 L 190.476562 145.664062 L 190.476562 190.816406 L 144.902344 190.816406 Z M 192.882812 145.664062 L 238.457031 145.664062 L 238.457031 190.816406 L 192.882812 190.816406 Z M 240.863281 145.664062 L 286.441406 145.664062 L 286.441406 190.816406 L 240.863281 190.816406 Z M 288.84375 145.664062 L 334.421875 145.664062 L 334.421875 190.816406 L 288.84375 190.816406 Z M 48.941406 193.199219 L 94.515625 193.199219 L 94.515625 238.355469 L 48.941406 238.355469 Z M 96.921875 193.199219 L 142.496094 193.199219 L 142.496094 238.355469 L 96.921875 238.355469 Z M 144.902344 193.199219 L 190.476562 193.199219 L 190.476562 238.355469 L 144.902344 238.355469 Z M 192.882812 193.199219 L 238.457031 193.199219 L 238.457031 238.355469 L 192.882812 238.355469 Z M 240.863281 193.199219 L 286.441406 193.199219 L 286.441406 238.355469 L 240.863281 238.355469 Z M 288.84375 193.199219 L 334.421875 193.199219 L 334.421875 238.355469 L 288.84375 238.355469 Z M 48.941406 240.738281 L 94.515625 240.738281 L 94.515625 285.890625 L 48.941406 285.890625 Z M 96.921875 240.738281 L 142.496094 240.738281 L 142.496094 285.890625 L 96.921875 285.890625 Z M 144.902344 240.738281 L 190.476562 240.738281 L 190.476562 285.890625 L 144.902344 285.890625 Z M 192.882812 240.738281 L 238.457031 240.738281 L 238.457031 285.890625 L 192.882812 285.890625 Z M 240.863281 240.738281 L 286.441406 240.738281 L 286.441406 285.890625 L 240.863281 285.890625 Z M 288.84375 240.738281 L 334.421875 240.738281 L 334.421875 285.890625 L 288.84375 285.890625 Z M 48.941406 288.273438 L 94.515625 288.273438 L 94.515625 333.429688 L 48.941406 333.429688 Z M 96.921875 288.273438 L 142.496094 288.273438 L 142.496094 333.429688 L 96.921875 333.429688 Z M 144.902344 288.273438 L 190.476562 288.273438 L 190.476562 333.429688 L 144.902344 333.429688 Z M 192.882812 288.273438 L 238.457031 288.273438 L 238.457031 333.429688 L 192.882812 333.429688 Z M 240.863281 288.273438 L 286.441406 288.273438 L 286.441406 333.429688 L 240.863281 333.429688 Z M 288.84375 288.273438 L 334.421875 288.273438 L 334.421875 333.429688 L 288.84375 333.429688 Z M 288.84375 288.273438"/> <use mask="url(#mask0)" xlink:href="#surface5"/> <path style="fill:rgb(6.666%,17.647%,36.078%)" d="M 344.652344 139.535156 C 233.914062 203.65625 124.050781 268.496094 29.285156 323.5 C 140.332031 323.5 249.410156 323.5 344.652344 323.5 C 344.652344 259.140625 344.652344 194.988281 344.652344 139.535156 Z M 299.761719 224.390625 L 299.761719 290.082031 L 186.964844 290.082031 Z M 299.761719 224.390625"/> <path style="fill:rgb(100.000%,100.000%,100.000%)" d="M 326.871094 149.859375 L 323.804688 151.648438 L 329.171875 160.835938 L 332.234375 159.046875 Z M 314.617188 157.011719 L 311.554688 158.800781 L 316.921875 167.988281 L 319.980469 166.199219 Z M 302.367188 164.164062 L 299.304688 165.953125 L 310.035156 184.332031 L 313.097656 182.542969 Z M 290.113281 171.320312 L 287.050781 173.105469 L 292.417969 182.296875 L 295.480469 180.507812 Z M 277.863281 178.472656 L 274.800781 180.257812 L 280.164062 189.449219 L 283.230469 187.660156 Z M 265.613281 185.625 L 262.550781 187.414062 L 273.28125 205.789062 L 276.34375 204 Z M 253.359375 192.777344 L 250.296875 194.566406 L 255.664062 203.753906 L 258.726562 201.96875 Z M 241.109375 199.933594 L 238.046875 201.71875 L 243.410156 210.910156 L 246.472656 209.121094 Z M 228.859375 207.085938 L 225.796875 208.871094 L 236.523438 227.25 L 239.589844 225.460938 Z M 216.605469 214.238281 L 213.542969 216.027344 L 218.910156 225.214844 L 221.972656 223.425781 Z M 204.355469 221.390625 L 201.292969 223.179688 L 206.65625 232.367188 L 209.722656 230.582031 Z M 192.105469 228.546875 L 189.039062 230.332031 L 199.769531 248.710938 L 202.832031 246.921875 Z M 179.851562 235.699219 L 176.789062 237.484375 L 182.152344 246.675781 L 185.21875 244.886719 Z M 167.601562 242.851562 L 164.539062 244.640625 L 169.902344 253.828125 L 172.964844 252.039062 Z M 155.347656 250.003906 L 152.285156 251.792969 L 163.015625 270.171875 L 166.078125 268.382812 Z M 143.097656 257.160156 L 140.035156 258.945312 L 145.398438 268.136719 L 148.460938 266.347656 Z M 130.847656 264.3125 L 127.785156 266.097656 L 133.148438 275.289062 L 136.210938 273.5 Z M 118.59375 271.464844 L 115.53125 273.253906 L 126.261719 291.628906 L 129.324219 289.839844 Z M 106.34375 278.617188 L 103.28125 280.40625 L 108.644531 289.59375 L 111.710938 287.808594 Z M 94.09375 285.769531 L 91.027344 287.558594 L 96.394531 296.75 L 99.457031 294.960938 Z M 81.839844 292.925781 L 78.777344 294.710938 L 89.507812 313.089844 L 92.570312 311.300781 Z M 69.589844 300.078125 L 66.527344 301.867188 L 71.890625 311.054688 L 74.953125 309.265625 Z M 57.335938 307.230469 L 54.277344 309.019531 L 59.640625 318.207031 L 62.703125 316.417969 Z M 57.335938 307.230469"/> <use mask="url(#mask1)" xlink:href="#surface8"/> <path style="fill:rgb(100.000%,100.000%,100.000%)" d="M 287.042969 33.628906 L 367.90625 120.964844 C 367.90625 120.964844 325.238281 120.871094 302.78125 120.871094 C 291.292969 120.871094 287.046875 117.480469 287.046875 107.085938 Z M 287.042969 33.628906"/> </g> </svg>

<svg width="512" height="512" version="1.1" viewBox="0 0 384 384" xmlns="http://www.w3.org/2000/svg" xmlns:xlink="http://www.w3.org/1999/xlink"><defs><linearGradient id="c" x1="399.59" x2="427.14" y1="194.22" y2="194.9" gradientTransform="matrix(.60796 0 0 .63131 105.85 13.175)" gradientUnits="userSpaceOnUse"><stop offset="0"/><stop stop-opacity="0" offset="1"/></linearGradient><linearGradient id="a" x1="399.59" x2="427.14" y1="194.22" y2="194.9" gradientTransform="matrix(.60796 0 0 .63131 105.85 13.175)" gradientUnits="userSpaceOnUse" xlink:href="#c"/></defs><path d="m329.46 79.68-39.578 24.18 78.363 80.207-0.19531-62.426z" fill="url(#a)"/><path d="m26.812 33.551c-10 0.50781-11.043 1.7969-11.043 11.836v293.06c0 10.367 1.5703 11.859 12.035 11.859h327.82c10.043 0 11.348-0.83593 11.988-10.621v-218.98l-80.633-87.152z" fill="#4aaee6"/><path d="m46.535 33.551v14.652h-30.785v2.3828h30.785v45.156h-30.785v2.3828h30.785v45.152h-30.785v2.3867h30.785v45.152h-30.785v2.3828h30.785v45.156h-30.785v2.3828h30.785v45.152h-30.785v2.3828h30.785v45.156h-30.785v2.3828h30.785v14.652h2.4062v-14.652h45.574v14.652h2.4062v-14.652h45.574v14.652h2.4062v-14.652h45.574v14.652h2.4062v-14.652h45.574v14.652h2.4062v-14.652h45.578v14.652h2.4023v-14.652h45.578v14.652h2.4024v-14.652h30.785v-2.3828h-30.785v-45.156h30.785v-2.3828h-30.785v-45.152h30.785v-2.3828h-30.785v-45.156h30.785v-2.3828h-30.785v-45.152h30.785v-2.3867h-30.785v-45.152h8l-2.4062-2.3828h-5.5938v-5.5391l-2.4024-2.3828v7.9219h-45.578v-45.156h7.9961l-2.4023-2.3828h-5.5938v-12.285l-2.4023-2.3828v14.668h-45.578v-14.652h-2.4062v14.652h-45.574v-14.652h-2.4062v14.652h-45.574v-14.652h-2.4062v14.652h-45.574v-14.652h-2.4062v14.652h-45.574v-14.652zm2.4062 17.035h45.574v45.156h-45.574zm47.98 0h45.574v45.156h-45.574zm47.98 0h45.574v45.156h-45.574zm47.98 0h45.574v45.156h-45.574zm47.98 0h45.578v45.156h-45.578zm-191.92 47.539h45.574v45.152h-45.574zm47.98 0h45.574v45.152h-45.574zm47.98 0h45.574v45.152h-45.574zm47.98 0h45.574v45.152h-45.574zm47.98 0h45.578v45.152h-45.578zm47.98 0h45.578v45.152h-45.578zm-239.9 47.539h45.574v45.152h-45.574zm47.98 0h45.574v45.152h-45.574zm47.98 0h45.574v45.152h-45.574zm47.98 0h45.574v45.152h-45.574zm47.98 0h45.578v45.152h-45.578zm47.98 0h45.578v45.152h-45.578zm-239.9 47.535h45.574v45.156h-45.574zm47.98 0h45.574v45.156h-45.574zm47.98 0h45.574v45.156h-45.574zm47.98 0h45.574v45.156h-45.574zm47.98 0h45.578v45.156h-45.578zm47.98 0h45.578v45.156h-45.578zm-239.9 47.539h45.574v45.152h-45.574zm47.98 0h45.574v45.152h-45.574zm47.98 0h45.574v45.152h-45.574zm47.98 0h45.574v45.152h-45.574zm47.98 0h45.578v45.152h-45.578zm47.98 0h45.578v45.152h-45.578zm-239.9 47.535h45.574v45.156h-45.574zm47.98 0h45.574v45.156h-45.574zm47.98 0h45.574v45.156h-45.574zm47.98 0h45.574v45.156h-45.574zm47.98 0h45.578v45.156h-45.578zm47.98 0h45.578v45.156h-45.578z" fill="#e6e6e6" fill-rule="evenodd"/><path d="m329.46 79.68-39.578 24.18 78.363 80.207-0.19531-62.426z" fill="url(#a)" opacity=".3"/><path d="m344.65 147.04c-110.74 64.121-220.6 128.96-315.37 183.96h315.37v-183.96zm-44.891 84.855v65.691h-112.8z" opacity=".3"/><path d="m344.65 139.54c-110.74 64.121-220.6 128.96-315.37 183.96h315.37v-183.96zm-44.891 84.855v65.691h-112.8z" fill="#0f2b5c"/><path d="m326.87 149.86-3.0664 1.7891 5.3672 9.1875 3.0625-1.7891zm-12.254 7.1524-3.0625 1.7891 5.3672 9.1875 3.0586-1.7891zm-12.25 7.1523-3.0625 1.7891 10.73 18.379 3.0625-1.7891zm-12.254 7.1562-3.0625 1.7852 5.3672 9.1914 3.0625-1.7891zm-12.25 7.1524-3.0625 1.7852 5.3633 9.1914 3.0664-1.7891zm-12.25 7.1523-3.0625 1.7891 10.73 18.375 3.0625-1.7891zm-12.254 7.1523-3.0625 1.7891 5.3672 9.1875 3.0625-1.7852zm-12.25 7.1562-3.0625 1.7852 5.3633 9.1914 3.0625-1.7891zm-12.25 7.1524-3.0625 1.7852 10.727 18.379 3.0664-1.7891zm-12.254 7.1523-3.0625 1.7891 5.3672 9.1875 3.0625-1.7891zm-12.25 7.1523-3.0625 1.7891 5.3633 9.1875 3.0664-1.7852zm-12.25 7.1562-3.0664 1.7852 10.73 18.379 3.0625-1.7891zm-12.254 7.1524-3.0625 1.7852 5.3633 9.1914 3.0664-1.7891zm-12.25 7.1523-3.0625 1.7891 5.3633 9.1875 3.0625-1.7891zm-12.254 7.1524-3.0625 1.7891 10.73 18.379 3.0625-1.7891zm-12.25 7.1562-3.0625 1.7852 5.3633 9.1914 3.0625-1.7891zm-12.25 7.1523-3.0625 1.7852 5.3633 9.1914 3.0625-1.7891zm-12.254 7.1523-3.0625 1.7891 10.73 18.375 3.0625-1.7891zm-12.25 7.1524-3.0625 1.7891 5.3633 9.1875 3.0664-1.7852zm-12.25 7.1523-3.0664 1.7891 5.3672 9.1914 3.0625-1.7891zm-12.254 7.1562-3.0625 1.7852 10.73 18.379 3.0625-1.7891zm-12.25 7.1523-3.0625 1.7891 5.3633 9.1875 3.0625-1.7891zm-12.254 7.1524-3.0586 1.7891 5.3633 9.1875 3.0625-1.7891z" fill="#fff"/><path d="m287.04 33.629 80.863 87.336s-42.668-0.0937-65.125-0.0937c-11.488 0-15.734-3.3906-15.734-13.785z" fill="#fff"/><path transform="scale(.75)" d="m21.025 441.27v10c0 13.823 2.0938 15.812 16.047 15.812h437.09c13.391 0 15.13-1.1152 15.984-14.162v-10c-0.85416 13.047-2.5937 14.162-15.984 14.162h-437.09c-13.953 0-16.047-1.9896-16.047-15.812z" opacity=".3" stroke-width="1.3333"/><path transform="scale(.75)" d="m35.75 44.734c-13.333 0.67708-14.725 2.3958-14.725 15.781v10c0-13.385 1.3913-15.104 14.725-15.781h346.88l97.97 106.18 9.54 0.0193-107.51-116.2z" fill="#fdfeff" opacity=".3" stroke-width="1.3333"/></svg>
